X:1116
M:3/4
L:1/8
Q:1/4=80
K:D
    F2 A2 Bc|d3   e   {de}f2 |[1 A>B AF  ED | D4       :|\
                              [2 A2  gf Te>d| d4       ||
d>e|f2 gf ed|c2  ec       BA |   Bc  dB  AF | F2 E2  DE |
    F2 A2 Bc|d>c d>e  {de}f2 |[1 A>B AF  E>D| D4       :|\
                              [2 A2  gf  e>d| d4       ||

